outputs/icons/navigation/arrow_down_round.svg

<svg xmlns="http://www.w3.org/2000/svg" width="1200" height="1200" fill="none"><g clip-path="url(#a)"><path fill="#000" d="M550 250v558.5l-244.001-244c-19.501-19.5-51.5-19.5-71 0-19.501 19.5-19.501 51 0 70.5L564.5 964.5c19.5 19.5 51 19.5 70.5 0L964.5 635c19.5-19.5 19.5-51 0-70.5s-51-19.5-70.5 0l-244 244V250c0-27.5-22.5-50-50-50s-50 22.5-50 50"/></g><defs><clipPath id="a"><path fill="#fff" d="M0 0h1200v1200H0z"/></clipPath></defs></svg>

<svg width="1200" height="1200" viewBox="0 0 1200 1200" fill="none" xmlns="http://www.w3.org/2000/svg"><g clip-path="url(#clip0_247_566)"><path d="M550 250V808.5L306 564.5C286.5 545 254.5 545 235 564.5C215.5 584 215.5 615.5 235 635L564.5 964.5C584 984 615.5 984 635 964.5L964.5 635C984 615.5 984 584 964.5 564.5C945 545 913.5 545 894 564.5L650 808.5V250C650 222.5 627.5 200 600 200C572.5 200 550 222.5 550 250Z" fill="#1D1E23"/></g><defs><clipPath id="clip0_247_566"><path width="24" fill="white" d="M0 0H1200V1200H0V0z"/></clipPath></defs></svg>
